X:45
T:The Deils Among the Taylors
S:Petrie's Third Collection of Strathspey Reels and Country Dances &c.
Z:Steve Wyrick , 7/30/05
N:Petrie's Third Collection, page 18
L:1/8
M:C
R:Reel
K:A
a2eg a2eg|a2ea {f}e2 dc|dfBf dfBf|dfBf {a}g2fe|a2eg a2eg|
a2ea {f}e2dc|defd ecBA|E2G2A4||ceAe ceAe|ceAe {f}e2dc|
dfBf dfBf|dfBf {g}f2ed|ceAe ceAe|ceAe {f}e2dc|defd ecBA|E2G2A4|]
